X:0751
T:Dutchess' Slipper.
M:C
L:1/8
Q:1/2=104
I: :: ||
Z:Jack Campin * www.campin.me.uk * 2009
K:G
DG``BG d<GB<G|DGBG E<ATA2|DG``BG  dG`B<g|{e}d>cBA G<G G2:|
d<gTg2 dg`bg |agbg ea Ta2|d<gTg2  dg`bg |   ag`bg ea Ta2 |
d<g g2 dg`bg |agbg ea Ta2|g<b`e<g d<gB<g|{e}d>cBA G<G G2|]
<end>
<start>
